svg/u2797.svg

<svg viewBox="0 0 2600 2760.837" xmlns="http://www.w3.org/2000/svg"><path d="M1147 611q63-65 153-65 91 0 154.5 64.5t63.5 153.5q0 90-64 154t-154 64q-89 0-152.5-64t-63.5-154q0-88 63-153z m307.5 1638.5q-63.5 64.5-154.5 64.5-90 0-153-65t-63-153q0-90 64.5-154t151.5-64q88 0 153 64t65 154q0 89-63.5 153.5z m689.5-993.5q23 0 39.5 16.5t16.5 39.5v237q0 23-16.5 39.5t-39.5 16.5h-1688q-23 0-39.5-16.5t-16.5-39.5v-237q0-23 16.5-39.5t39.5-16.5h1688z"/></svg>

<svg viewBox="0 0 2600 2760.837" xmlns="http://www.w3.org/2000/svg"><path d="M1147 611q63-65 153-65 91 0 154.5 64.5T1518 764q0 90-64 154t-154 64q-89 0-152.5-64T1084 764q0-88 63-153zm307.5 1638.5Q1391 2314 1300 2314q-90 0-153-65t-63-153q0-90 64.5-154t151.5-64q88 0 153 64t65 154q0 89-63.5 153.5zM2144 1256q23 0 39.5 16.5t16.5 39.5v237q0 23-16.5 39.5T2144 1605H456q-23 0-39.5-16.5T400 1549v-237q0-23 16.5-39.5T456 1256h1688z"/></svg>
